X: 1
T: Hanna Larssons schottis
C: av Peter Larsson
R: shottish
S: Fiddle Hell Online 2020-11-05
Z: 2020 John Chambers <jc:trillian.mit.edu>
M: 2/4
L: 1/16
K: C	% and Cm
|:\
"C"CEGc e2dc | "F"BdA2 A3c | "G"BdA2 A2BA | "C"GcE2 GFED | CEGc e2dc | "F"BdA2 A3c |
"G"B2G2 A2B2 |1 "C"c4 c4 :|2 "C"c4 cdcB |: "F"A2FA dcBA | "C"G2EG cBAG | "G"G2GE D2ED |
"C"C2E2 G2cB | "F"A2FA dcBA | "C"G2EG cBAG | "G"F2FE D2ED |1 "C"C2E2 C2cB :|2 "C"C2E2C4 ||\
[K: Cm]
|:\
"Cm"G2ce g2fe | "G"e2dd d2d2 | G2=Bd Bfed | "Cm"c2e2 g3c | G2ce g2fe | "G"e2dd d2d2 |
"G"G2=Bd Bfed |1 "Cm"c2e2 c4 :|2 "Cm"c2e2 c2g2 |: "G"fgeg dgcg | cg=B2 B2g2 |
fgeg dg=Bg | "Cm"c2de g4 | "G"fgeg dgcg | cg=B2 B2g2 | fgeg dg=Bg | "Cm"c4 c4 :|
